gy/si-glyph-fence-2.svg

<svg viewBox="0 0 17 16" xmlns="http://www.w3.org/2000/svg" class="si-glyph si-glyph-fence-2" height="1em" width="1em">
  <path d="M15.863 6c.582 0 1.055-.294 1.055-.657V4.74c0-.363-.473-.657-1.055-.657h-1.904c0-.553-.301-1-.672-1h-.615c-.371 0-.672.447-.672 1H5.918c0-.553-.289-1-.644-1h-.59c-.355 0-.642.447-.642 1H2c-.553 0-1 .294-1 .657v.603C1 5.706 1.447 6 2 6h2.043v1.041H2c-.553 0-1 .282-1 .629v.576c0 .348.447.629 1 .629h2.043v1.208H2c-.553 0-1 .294-1 .657v.603c0 .363.447.657 1 .657h2.043c0 .553.286 1 .642 1h.59c.354 0 .644-.447.644-1H12c0 .553.301 1 .672 1h.615c.371 0 .672-.447.672-1h1.904c.582 0 1.055-.294 1.055-.657v-.603c0-.363-.473-.657-1.055-.657h-1.904V8.875h1.904c.582 0 1.055-.281 1.055-.629V7.67c0-.347-.473-.629-1.055-.629h-1.904V6h1.904ZM12 6v1.041H5.918V6H12Zm-6.082 4.083V8.875H12v1.208H5.918Z" fill="#434343" class="si-glyph-fill" fill-rule="evenodd"/>
</svg>

<svg viewBox="0 0 17 16" version="1.1" xmlns="http://www.w3.org/2000/svg" class="si-glyph si-glyph-fence-2" height="1em" width="1em">
  <g stroke="none" stroke-width="1" fill="none" fill-rule="evenodd">
    <path d="M15.863,6 C16.445,6 16.918,5.706 16.918,5.343 L16.918,4.74 C16.918,4.377 16.445,4.083 15.863,4.083 L13.959,4.083 C13.959,3.53 13.658,3.083 13.287,3.083 L12.672,3.083 C12.301,3.083 12,3.53 12,4.083 L5.918,4.083 C5.918,3.53 5.629,3.083 5.274,3.083 L4.684,3.083 C4.329,3.083 4.042,3.53 4.042,4.083 L2,4.083 C1.447,4.083 1,4.377 1,4.74 L1,5.343 C1,5.706 1.447,6 2,6 L4.043,6 L4.043,7.041 L2,7.041 C1.447,7.041 1,7.323 1,7.67 L1,8.246 C1,8.594 1.447,8.875 2,8.875 L4.043,8.875 L4.043,10.083 L2,10.083 C1.447,10.083 1,10.377 1,10.74 L1,11.343 C1,11.706 1.447,12 2,12 L4.043,12 C4.043,12.553 4.329,13 4.685,13 L5.275,13 C5.629,13 5.919,12.553 5.919,12 L12,12 C12,12.553 12.301,13 12.672,13 L13.287,13 C13.658,13 13.959,12.553 13.959,12 L15.863,12 C16.445,12 16.918,11.706 16.918,11.343 L16.918,10.74 C16.918,10.377 16.445,10.083 15.863,10.083 L13.959,10.083 L13.959,8.875 L15.863,8.875 C16.445,8.875 16.918,8.594 16.918,8.246 L16.918,7.67 C16.918,7.323 16.445,7.041 15.863,7.041 L13.959,7.041 L13.959,6 L15.863,6 L15.863,6 Z M12,6 L12,7.041 L5.918,7.041 L5.918,6 L12,6 L12,6 Z M5.918,10.083 L5.918,8.875 L12,8.875 L12,10.083 L5.918,10.083 L5.918,10.083 Z" fill="#434343" class="si-glyph-fill"/>
  </g>
</svg>
